X:090 
T:Johnny O'Leary's  (polka)
F:file ID: cre.5/090johnny_o
B:CRE5.099 (Polca SheÃÂÃÂÃÂÃÂ¡in UÃÂÃÂÃÂÃÂ­ Laoghaire)
M:2/4
N:No repeats in CRE.
L:1/8
Q:120
R:polka
K:D
Af fe/d/|cB g2|A/B/c/d/ eA|fe cA|
Af fe/d/|cB g2|A/B/c/d/ eA|d2 d2:|
|:f2 gf|eA e2|A/B/c/d/ eA|fe cA|
f2 gf|eA e2|A/B/c/d/ eA|d2 d2:|
"last time"d2 d2-|d4||

%%%

